file/harpercollins.svg

<svg clip-rule="evenodd" fill-rule="evenodd" stroke-linejoin="round" stroke-miterlimit="1.41421" viewBox="0 0 560 400" xmlns="http://www.w3.org/2000/svg"><g fill-rule="nonzero" transform="matrix(1.80854 0 0 1.80854 -125.112 -89.0041)"><path d="m181.727 171.68c-7.227 7.227-15.444 10.296-22.671 7.227v55.539h129.69v-57.618c-11.286 12.375-24.651 7.227-23.661-4.059-19.602 23.661-30.888 10.296-27.819 1.089-18.513 21.681-29.799 9.306-24.651-2.079-22.572 27.72-38.016 17.424-30.888-.099z" fill="#0071ce"/><path d="m228.059 97.529c2.079-5.148 0-11.286-2.079-12.375 8.217 1.089 15.444 12.375 15.444 24.651 0 16.434-17.523 28.908-16.434 43.164 4.059-19.602 32.967-30.888 26.829-51.48 9.306 5.148 12.375 20.592 14.454 31.878 3.168-11.286 19.602-18.513 22.671-27.819v59.697h-129.789v-30.888c0-18.513 31.878-17.523 29.799-35.046 9.306 15.444-5.148 27.819-3.168 38.115 8.415-29.502 36.135-21.384 42.273-39.897z" fill="#d9272e"/></g></svg>

<?xml version="1.0" encoding="UTF-8" standalone="no"?>
<!DOCTYPE svg PUBLIC "-//W3C//DTD SVG 1.1//EN" "http://www.w3.org/Graphics/SVG/1.1/DTD/svg11.dtd">
<svg width="100%" height="100%" viewBox="0 0 560 400" version="1.1" xmlns="http://www.w3.org/2000/svg" xmlns:xlink="http://www.w3.org/1999/xlink" xml:space="preserve" xmlns:serif="http://www.serif.com/" style="fill-rule:evenodd;clip-rule:evenodd;stroke-linejoin:round;stroke-miterlimit:1.41421;">
    <g transform="matrix(1.80854,0,0,1.80854,-125.112,-89.0041)">
        <path d="M181.727,171.68C174.5,178.907 166.283,181.976 159.056,178.907L159.056,234.446L288.746,234.446L288.746,176.828C277.46,189.203 264.095,184.055 265.085,172.769C245.483,196.43 234.197,183.065 237.266,173.858C218.753,195.539 207.467,183.164 212.615,171.779C190.043,199.499 174.599,189.203 181.727,171.68Z" style="fill:rgb(0,113,206);fill-rule:nonzero;"/>
        <path d="M228.059,97.529C230.138,92.381 228.059,86.243 225.98,85.154C234.197,86.243 241.424,97.529 241.424,109.805C241.424,126.239 223.901,138.713 224.99,152.969C229.049,133.367 257.957,122.081 251.819,101.489C261.125,106.637 264.194,122.081 266.273,133.367C269.441,122.081 285.875,114.854 288.944,105.548L288.944,165.245L159.155,165.245L159.155,134.357C159.155,115.844 191.033,116.834 188.954,99.311C198.26,114.755 183.806,127.13 185.786,137.426C194.201,107.924 221.921,116.042 228.059,97.529Z" style="fill:rgb(217,39,46);fill-rule:nonzero;"/>
    </g>
</svg>
